tools/download-figma-icons/icons/outlined-large/power-plug.svg

<svg width="64" height="64" viewBox="0 0 64 64" fill="none" xmlns="http://www.w3.org/2000/svg">
<path fill-rule="evenodd" clip-rule="evenodd" d="M22.3802 36.1988V41.0848C22.3802 46.3887 26.6952 50.7037 32.0002 50.7037C37.3042 50.7037 41.6191 46.3887 41.6191 41.0848V36.1988H22.3802ZM45.5001 27.1988V33.1988H18.5003V27.1988H45.5001ZM32.0002 0C49.6451 0 64 14.3559 64 31.9998C64 44.8127 56.394 56.3557 44.6211 61.4137C44.6201 61.4146 44.6191 61.4146 44.6171 61.4146C44.6151 61.4156 44.6134 61.4166 44.6116 61.4176C44.6099 61.4186 44.6081 61.4197 44.6061 61.4206C44.6011 61.4226 44.5961 61.4236 44.5911 61.4256C43.2991 61.9916 41.9431 62.2796 40.5601 62.2796C35.4852 62.2796 31.2872 58.5067 30.5952 53.6207C24.2962 52.9187 19.3803 47.5667 19.3803 41.0848V36.1988H17.0003C16.1713 36.1988 15.5003 35.5268 15.5003 34.6988V25.6989C15.5003 24.8709 16.1713 24.1989 17.0003 24.1989H22.5002V12.7089C22.5002 11.8809 23.1712 11.2089 24.0002 11.2089C24.8282 11.2089 25.5002 11.8809 25.5002 12.7089V24.1989H38.5001V12.7089C38.5001 11.8809 39.1711 11.2089 40.0001 11.2089C40.8281 11.2089 41.5001 11.8809 41.5001 12.7089V24.1989H47.0001C47.8281 24.1989 48.5001 24.8709 48.5001 25.6989V34.6988C48.5001 35.5268 47.8281 36.1988 47.0001 36.1988H44.6191V41.0848C44.6191 47.4917 39.8141 52.7877 33.6212 53.5877C34.2672 56.8287 37.1312 59.2797 40.5601 59.2797C41.5331 59.2797 42.4921 59.0747 43.4081 58.6697L43.4091 58.6707C43.4141 58.6687 43.4181 58.6647 43.4231 58.6627C54.1011 54.0827 61 43.6168 61 31.9998C61 16.0099 47.9901 2.99998 32.0002 2.99998C16.0093 2.99998 3.00035 16.0099 3.00035 31.9998C3.00035 39.3308 5.74133 46.3277 10.7193 51.7007C11.2823 52.3087 11.2463 53.2577 10.6383 53.8207C10.0313 54.3847 9.08131 54.3487 8.51832 53.7397C3.02535 47.8107 0.000366209 40.0898 0.000366209 31.9998C0.000366209 14.3559 14.3553 0 32.0002 0ZM31.9989 41.9673C33.1589 41.9673 34.0979 42.9073 34.0979 44.0652C34.0979 45.2242 33.1589 46.1642 31.9989 46.1642C30.8409 46.1642 29.9009 45.2242 29.9009 44.0652C29.9009 42.9073 30.8409 41.9673 31.9989 41.9673Z" fill="black"/>
</svg>

<svg width="64" height="64" viewBox="0 0 64 64" fill="none" xmlns="http://www.w3.org/2000/svg"><path fill-rule="evenodd" clip-rule="evenodd" d="M22.38 36.199v4.886c0 5.304 4.315 9.619 9.62 9.619 5.304 0 9.62-4.315 9.62-9.62V36.2H22.38Zm23.12-9v6h-27v-6h27ZM32 0c17.645 0 32 14.356 32 32a31.98 31.98 0 0 1-19.379 29.414h-.004l-.005.004-.006.003-.015.005a9.991 9.991 0 0 1-4.03.854c-5.076 0-9.274-3.773-9.966-8.66-6.299-.701-11.215-6.053-11.215-12.535v-4.886H17a1.5 1.5 0 0 1-1.5-1.5v-9a1.5 1.5 0 0 1 1.5-1.5h5.5v-11.49a1.5 1.5 0 1 1 3 0v11.49h13v-11.49a1.5 1.5 0 1 1 3 0v11.49H47a1.5 1.5 0 0 1 1.5 1.5v9a1.5 1.5 0 0 1-1.5 1.5h-2.38v4.886c0 6.407-4.806 11.703-10.999 12.503.646 3.24 3.51 5.692 6.94 5.692.972 0 1.931-.205 2.847-.61h.001c.005-.001.01-.005.014-.007A28.981 28.981 0 0 0 61 32C61 16.01 47.99 3 32 3S3 16.01 3 32a28.902 28.902 0 0 0 7.72 19.7 1.5 1.5 0 1 1-2.202 2.04A31.893 31.893 0 0 1 0 32C0 14.356 14.355 0 32 0Zm0 41.967a2.098 2.098 0 1 1 0 4.197 2.098 2.098 0 0 1-.001-4.197Z" fill="currentColor"/></svg>
